X: 1
T:Laura Lynn Cunningham
M:C|
L:1/8
C:Phil Cunningham
R:reel
K:BMin
F~B3 A~c3|d2fd eAcA|F~B3 FBBc|Acef c2BA|
!F~B3 A~c3|d2fd eAcA|B2fB ecAB|BAdc ~B3A|
!F~B3 A~c3|d2fd eAcA|F~B3 FBBc|Acef c2ba|
!bfab efaf|eAcd- dcBA|B~F3 ABcf-|~f2ec B3z|
!:~B2 c/2B/2A B~F3|EFAB ceae|f~B3 FBBc|Acef c2BA|
!Bb-bB a2fe|cfec ecAc|B~F3 ABce|~f2ec ~B3A:|
